static/img/olake/ArrowSquareOut.svg

<svg width="17" height="16" viewBox="0 0 17 16" fill="none" xmlns="http://www.w3.org/2000/svg">
<path d="M14.75 6.5C14.75 6.69891 14.671 6.88968 14.5303 7.03033C14.3897 7.17098 14.1989 7.25 14 7.25C13.8011 7.25 13.6103 7.17098 13.4697 7.03033C13.329 6.88968 13.25 6.69891 13.25 6.5V4.3125L9.53063 8.03187C9.38973 8.17277 9.19863 8.25193 8.99938 8.25193C8.80012 8.25193 8.60902 8.17277 8.46812 8.03187C8.32723 7.89098 8.24807 7.69988 8.24807 7.50063C8.24807 7.30137 8.32723 7.11027 8.46812 6.96938L12.1875 3.25H10C9.80109 3.25 9.61032 3.17098 9.46967 3.03033C9.32902 2.88968 9.25 2.69891 9.25 2.5C9.25 2.30109 9.32902 2.11032 9.46967 1.96967C9.61032 1.82902 9.80109 1.75 10 1.75H14C14.1989 1.75 14.3897 1.82902 14.5303 1.96967C14.671 2.11032 14.75 2.30109 14.75 2.5V6.5ZM12 8C11.8011 8 11.6103 8.07902 11.4697 8.21967C11.329 8.36032 11.25 8.55109 11.25 8.75V12.75H3.75V5.25H7.75C7.94891 5.25 8.13968 5.17098 8.28033 5.03033C8.42098 4.88968 8.5 4.69891 8.5 4.5C8.5 4.30109 8.42098 4.11032 8.28033 3.96967C8.13968 3.82902 7.94891 3.75 7.75 3.75H3.5C3.16848 3.75 2.85054 3.8817 2.61612 4.11612C2.3817 4.35054 2.25 4.66848 2.25 5V13C2.25 13.3315 2.3817 13.6495 2.61612 13.8839C2.85054 14.1183 3.16848 14.25 3.5 14.25H11.5C11.8315 14.25 12.1495 14.1183 12.3839 13.8839C12.6183 13.6495 12.75 13.3315 12.75 13V8.75C12.75 8.55109 12.671 8.36032 12.5303 8.21967C12.3897 8.07902 12.1989 8 12 8Z" fill="white"/>
</svg>

<svg xmlns="http://www.w3.org/2000/svg" width="17" height="16" fill="none" viewBox="0 0 17 16"><path fill="#fff" d="M14.75 6.5a.75.75 0 1 1-1.5 0V4.313L9.53 8.031a.751.751 0 1 1-1.062-1.063l3.72-3.719H10a.75.75 0 0 1 0-1.5h4a.75.75 0 0 1 .75.75zM12 8a.75.75 0 0 0-.75.75v4h-7.5v-7.5h4a.75.75 0 0 0 0-1.5H3.5A1.25 1.25 0 0 0 2.25 5v8a1.25 1.25 0 0 0 1.25 1.25h8A1.25 1.25 0 0 0 12.75 13V8.75A.75.75 0 0 0 12 8"/></svg>
